img/skills-icon/html5.svg

<svg viewBox="0 0 364 512" xmlns="http://www.w3.org/2000/svg"><path d="M34.26 0H57.5c-.03 7.54.07 15.08-.06 22.62 7 .3 14.02.04 21.02.14.09-7.58 0-15.17.05-22.76h23.24c0 23.07-.01 46.14 0 69.2-7.74.1-15.49.04-23.23.04-.03-7.72-.06-15.44.02-23.15-7.02-.16-14.05-.12-21.07-.02.05 7.72.04 15.45.01 23.17-7.74.01-15.48.03-23.22-.01-.02-23.08-.01-46.15 0-69.23zm77.25 0h63.99c.01 7.64-.03 15.29.03 22.93-6.76.17-13.52 0-20.28.09-.01 15.41.02 30.81-.01 46.21-7.83.03-15.65.03-23.48.01-.03-15.41 0-30.82-.01-46.22-6.76-.08-13.52.07-20.28-.08.06-7.65 0-15.29.04-22.94zm74 0h24.21c4.91 7.9 9.74 15.85 14.56 23.81C229.43 16.04 233.99 7.87 239 0h24.25c-.01 23.08.02 46.16-.01 69.24-7.67.02-15.33.03-22.98-.01-.06-11.21.08-22.42-.08-33.63-5.71 7.83-10.4 16.36-16.09 24.21-5.35-8.07-10.44-16.3-15.86-24.32.03 11.25.03 22.5.01 33.75-7.51.07-15.02-.07-22.53.07-.49-23.08-.08-46.21-.2-69.31zm88.98 0H298c.01 15.33-.01 30.66.01 45.99 10.82.03 21.65-.01 32.48.02.02 7.74.03 15.49-.01 23.23-18.65.02-37.31.02-55.96 0-.05-23.08 0-46.16-.03-69.24z"/><path fill="#e85427" d="M.45 100.54c121.03-.06 242.07-.05 363.1 0-11.13 123.44-22.06 246.91-33.1 370.36-49.31 13.77-98.68 27.32-147.98 41.1h-1.45c-49.15-13.88-98.47-27.17-147.58-41.16C22.56 347.39 11.52 223.96.45 100.54m67.57 75.73c4.15 45.81 8.11 91.64 12.32 137.45 52.38-.09 104.75.07 157.13.1-1.53 19.51-3.5 38.99-5.12 58.5-16.83 4.58-33.67 9.13-50.52 13.64-16.89-4.24-33.65-9.06-50.5-13.48-1.11-12.06-2.17-24.13-3.24-36.2-15.29.06-30.57-.05-45.86.06 2.26 23.75 4.35 47.52 6.39 71.3 31.09 8.74 62.22 17.4 93.38 25.92 31.02-8.44 61.96-17.24 92.99-25.66 4.42-46.62 8.37-93.31 12.6-139.95-55.19-.07-110.38.12-165.58.1-1.42-15.45-2.77-30.89-4.15-46.34 57.95-.02 115.89.17 173.84.1 1.27-15.23 2.96-30.44 3.93-45.69-75.87.08-151.74.23-227.61.15z"/><path fill="#f5f5f5" d="M68.02 176.27c75.87.08 151.74-.07 227.61-.15-.97 15.25-2.66 30.46-3.93 45.69-57.95.07-115.89-.12-173.84-.1 1.38 15.45 2.73 30.89 4.15 46.34 55.2.02 110.39-.17 165.58-.1-4.23 46.64-8.18 93.33-12.6 139.95-31.03 8.42-61.97 17.22-92.99 25.66-31.16-8.52-62.29-17.18-93.38-25.92-2.04-23.78-4.13-47.55-6.39-71.3 15.29-.11 30.57 0 45.86-.06 1.07 12.07 2.13 24.14 3.24 36.2 16.85 4.42 33.61 9.24 50.5 13.48 16.85-4.51 33.69-9.06 50.52-13.64 1.62-19.51 3.59-38.99 5.12-58.5-52.38-.03-104.75-.19-157.13-.1-4.21-45.81-8.17-91.64-12.32-137.45z"/></svg>

<?xml version="1.0" encoding="UTF-8" ?>
<!DOCTYPE svg PUBLIC "-//W3C//DTD SVG 1.1//EN" "http://www.w3.org/Graphics/SVG/1.1/DTD/svg11.dtd">
<svg viewBox="0 0 364 512" version="1.1" xmlns="http://www.w3.org/2000/svg">
<g id="#000000ff">
<path fill="#000000" opacity="1.00" d=" M 34.26 0.00 L 57.50 0.00 C 57.47 7.54 57.57 15.08 57.44 22.62 C 64.44 22.92 71.46 22.66 78.46 22.76 C 78.55 15.18 78.46 7.59 78.51 0.00 L 101.75 0.00 C 101.75 23.07 101.74 46.14 101.75 69.20 C 94.01 69.30 86.26 69.24 78.52 69.24 C 78.49 61.52 78.46 53.80 78.54 46.09 C 71.52 45.93 64.49 45.97 57.47 46.07 C 57.52 53.79 57.51 61.52 57.48 69.24 C 49.74 69.25 42.00 69.27 34.26 69.23 C 34.24 46.15 34.25 23.08 34.26 0.00 Z" />
<path fill="#000000" opacity="1.00" d=" M 111.51 0.00 L 175.50 0.00 C 175.51 7.64 175.47 15.29 175.53 22.93 C 168.77 23.10 162.01 22.93 155.25 23.02 C 155.24 38.43 155.27 53.83 155.24 69.23 C 147.41 69.26 139.59 69.26 131.76 69.24 C 131.73 53.83 131.76 38.42 131.75 23.02 C 124.99 22.94 118.23 23.09 111.47 22.94 C 111.53 15.29 111.47 7.65 111.51 0.00 Z" />
<path fill="#000000" opacity="1.00" d=" M 185.51 0.00 L 209.72 0.00 C 214.63 7.90 219.46 15.85 224.28 23.81 C 229.43 16.04 233.99 7.87 239.00 0.00 L 263.25 0.00 C 263.24 23.08 263.27 46.16 263.24 69.24 C 255.57 69.26 247.91 69.27 240.26 69.23 C 240.20 58.02 240.34 46.81 240.18 35.60 C 234.47 43.43 229.78 51.96 224.09 59.81 C 218.74 51.74 213.65 43.51 208.23 35.49 C 208.26 46.74 208.26 57.99 208.24 69.24 C 200.73 69.31 193.22 69.17 185.71 69.31 C 185.22 46.23 185.63 23.10 185.51 0.00 Z" />
<path fill="#000000" opacity="1.00" d=" M 274.49 0.00 L 298.00 0.00 C 298.01 15.33 297.99 30.66 298.01 45.99 C 308.83 46.02 319.66 45.98 330.49 46.01 C 330.51 53.75 330.52 61.50 330.48 69.24 C 311.83 69.26 293.17 69.26 274.52 69.24 C 274.47 46.16 274.52 23.08 274.49 0.00 Z" />
</g>
<g id="#e85427ff">
<path fill="#e85427" opacity="1.00" d=" M 0.45 100.54 C 121.48 100.48 242.52 100.49 363.55 100.54 C 352.42 223.98 341.49 347.45 330.45 470.90 C 281.14 484.67 231.77 498.22 182.47 512.00 L 181.02 512.00 C 131.87 498.12 82.55 484.83 33.44 470.84 C 22.56 347.39 11.52 223.96 0.45 100.54 M 68.02 176.27 C 72.17 222.08 76.13 267.91 80.34 313.72 C 132.72 313.63 185.09 313.79 237.47 313.82 C 235.94 333.33 233.97 352.81 232.35 372.32 C 215.52 376.90 198.68 381.45 181.83 385.96 C 164.94 381.72 148.18 376.90 131.33 372.48 C 130.22 360.42 129.16 348.35 128.09 336.28 C 112.80 336.34 97.52 336.23 82.23 336.34 C 84.49 360.09 86.58 383.86 88.62 407.64 C 119.71 416.38 150.84 425.04 182.00 433.56 C 213.02 425.12 243.96 416.32 274.99 407.90 C 279.41 361.28 283.36 314.59 287.59 267.95 C 232.40 267.88 177.21 268.07 122.01 268.05 C 120.59 252.60 119.24 237.16 117.86 221.71 C 175.81 221.69 233.75 221.88 291.70 221.81 C 292.97 206.58 294.66 191.37 295.63 176.12 C 219.76 176.20 143.89 176.35 68.02 176.27 Z" />
</g>
<g id="#f5f5f5ff">
<path fill="#f5f5f5" opacity="1.00" d=" M 68.02 176.27 C 143.89 176.35 219.76 176.20 295.63 176.12 C 294.66 191.37 292.97 206.58 291.70 221.81 C 233.75 221.88 175.81 221.69 117.86 221.71 C 119.24 237.16 120.59 252.60 122.01 268.05 C 177.21 268.07 232.40 267.88 287.59 267.95 C 283.36 314.59 279.41 361.28 274.99 407.90 C 243.96 416.32 213.02 425.12 182.00 433.56 C 150.84 425.04 119.71 416.38 88.62 407.64 C 86.58 383.86 84.49 360.09 82.23 336.34 C 97.52 336.23 112.80 336.34 128.09 336.28 C 129.16 348.35 130.22 360.42 131.33 372.48 C 148.18 376.90 164.94 381.72 181.83 385.96 C 198.68 381.45 215.52 376.90 232.35 372.32 C 233.97 352.81 235.94 333.33 237.47 313.82 C 185.09 313.79 132.72 313.63 80.34 313.72 C 76.13 267.91 72.17 222.08 68.02 176.27 Z" />
</g>
</svg>
